src/assets/outline/Trontron.svg

<svg width="24" height="24" viewBox="0 0 24 24"  xmlns="http://www.w3.org/2000/svg">
<path d="M10.2302 21.8807C10.1602 21.8807 10.0903 21.8807 10.0203 21.8607C9.43026 21.7807 8.93022 21.3407 8.66022 20.6607L1.94025 3.86074C1.67025 3.19074 1.73027 2.54074 2.09027 2.07074C2.46027 1.60074 3.07022 1.38074 3.79022 1.48074L16.7603 3.21074C17.1103 3.26074 17.5203 3.46074 17.7703 3.71074L20.9003 6.84074C21.5103 7.46074 21.5802 8.47074 21.0402 9.16074L11.6602 21.1007C11.2602 21.6107 10.7502 21.8807 10.2302 21.8807ZM3.46027 2.96074C3.34027 2.96074 3.28026 2.99074 3.27026 3.00074C3.27026 3.01074 3.25026 3.12074 3.33026 3.31074L10.0502 20.1107C10.1302 20.3107 10.2202 20.3807 10.2302 20.3807C10.2402 20.3807 10.3402 20.3407 10.4702 20.1707L19.8502 8.23074C19.9202 8.15074 19.9103 7.97074 19.8303 7.90074L16.7003 4.77074C16.6803 4.75074 16.5902 4.71074 16.5502 4.70074L3.60022 2.97074C3.55022 2.96074 3.50027 2.96074 3.46027 2.96074Z" />
<path d="M9.99985 21.7507C9.97985 21.7507 9.94984 21.7507 9.92984 21.7507C9.51984 21.7107 9.20985 21.3507 9.24985 20.9407L10.2198 10.3207L2.50986 3.47074C2.19986 3.19074 2.16986 2.72074 2.44986 2.41074C2.72986 2.10074 3.19986 2.07074 3.50986 2.35074L11.4998 9.45074C11.6798 9.61074 11.7698 9.84074 11.7498 10.0807L10.7498 21.0807C10.7098 21.4607 10.3798 21.7507 9.99985 21.7507Z" />
<path d="M10.9998 10.7495C10.7298 10.7495 10.4699 10.5995 10.3399 10.3495C10.1799 10.0595 10.2398 9.69945 10.4698 9.46945L16.4698 3.46945C16.7598 3.17945 17.2399 3.17945 17.5299 3.46945C17.8199 3.75945 17.8199 4.23945 17.5299 4.52945L13.2799 8.77945L19.8898 7.45945C20.2998 7.37945 20.6899 7.63945 20.7699 8.04945C20.8499 8.45945 20.5898 8.84945 20.1798 8.92945L11.1398 10.7395C11.0998 10.7495 11.0498 10.7495 10.9998 10.7495Z" />
</svg>

<?xml version="1.0" encoding="UTF-8"?>
<svg width="24" height="24" viewBox="0 0 24 24" xmlns="http://www.w3.org/2000/svg">
 <path d="m10.23 21.881c-0.07 0-0.1399 0-0.2099-0.02-0.59004-0.08-1.0901-0.52-1.3601-1.2l-6.72-16.8c-0.27-0.67-0.20998-1.32 0.15002-1.79 0.37-0.47 0.97995-0.69 1.7-0.59l12.97 1.73c0.35 0.05 0.76 0.25 1.01 0.5l3.13 3.13c0.61 0.62 0.6799 1.63 0.1399 2.32l-9.38 11.94c-0.4 0.51-0.91 0.78-1.43 0.78zm-6.7699-18.92c-0.12 0-0.18001 0.03-0.19001 0.04 0 0.01-0.02 0.12 0.06 0.31l6.7199 16.8c0.08 0.2 0.17 0.27 0.18 0.27s0.11-0.04 0.24-0.21l9.38-11.94c0.07-0.08 0.0601-0.26-0.0199-0.33l-3.13-3.13c-0.02-0.02-0.1101-0.06-0.1501-0.07l-12.95-1.73c-0.05-0.01-0.09995-0.01-0.13995-0.01z"/>
 <path d="m9.9998 21.751h-0.07001c-0.41-0.04-0.71999-0.4-0.67999-0.81l0.96995-10.62-7.7099-6.85c-0.31-0.28-0.34-0.75-0.06-1.06s0.75-0.34 1.06-0.06l7.9899 7.1c0.18 0.16 0.27 0.39 0.25 0.62996l-1 11c-0.04 0.38-0.37 0.67-0.74995 0.67z"/>
 <path d="m11 10.75c-0.27 0-0.5299-0.15-0.6599-0.4-0.16-0.29-0.1001-0.65005 0.1299-0.88005l6-6c0.29-0.29 0.7701-0.29 1.0601 0s0.29 0.77 0 1.06l-4.25 4.25 6.6099-1.32c0.41-0.08 0.8001 0.18 0.8801 0.59s-0.1801 0.8-0.5901 0.88l-9.04 1.81c-0.04 0.01-0.09 0.01-0.14 0.01z"/>
</svg>
